src/assets/icons/letters,simple,serif-k.svg

<svg width="48" height="48" viewBox="0 0 48 48" fill="none" xmlns="http://www.w3.org/2000/svg">
<rect opacity="0.2" x="5" y="5" width="38" height="38" rx="4" fill="black"/>
<path d="M20.276 31.17C20.276 31.93 20.306 32.54 20.366 33C20.446 33.46 20.586 33.82 20.786 34.08C20.986 34.34 21.266 34.52 21.626 34.62C22.006 34.72 22.506 34.78 23.126 34.8V36H12.716V34.8C13.376 34.78 13.916 34.72 14.336 34.62C14.756 34.52 15.076 34.35 15.296 34.11C15.516 33.87 15.666 33.53 15.746 33.09C15.826 32.65 15.866 32.08 15.866 31.38V17.52C15.866 16.84 15.826 16.28 15.746 15.84C15.686 15.4 15.556 15.06 15.356 14.82C15.156 14.58 14.866 14.41 14.486 14.31C14.126 14.21 13.646 14.14 13.046 14.1V12.9H23.396V14.1C22.716 14.12 22.166 14.18 21.746 14.28C21.346 14.38 21.036 14.56 20.816 14.82C20.596 15.08 20.446 15.44 20.366 15.9C20.306 16.36 20.276 16.97 20.276 17.73V24.39L28.046 16.05C28.506 15.55 28.736 15.13 28.736 14.79C28.736 14.57 28.586 14.4 28.286 14.28C28.006 14.16 27.476 14.1 26.696 14.1V12.9H34.886V14.07C34.446 14.09 34.056 14.13 33.716 14.19C33.396 14.25 33.066 14.38 32.726 14.58C32.406 14.78 32.036 15.07 31.616 15.45C31.216 15.81 30.716 16.3 30.116 16.92L24.776 22.5L33.596 33.24C34.016 33.76 34.476 34.14 34.976 34.38C35.496 34.62 36.156 34.76 36.956 34.8V36H25.856V34.8C26.676 34.78 27.266 34.71 27.626 34.59C27.986 34.47 28.166 34.27 28.166 33.99C28.166 33.89 28.146 33.8 28.106 33.72C28.086 33.62 28.036 33.51 27.956 33.39C27.896 33.25 27.796 33.09 27.656 32.91C27.516 32.71 27.326 32.47 27.086 32.19L21.776 25.65L20.276 27.21V31.17Z" fill="black"/>
</svg>

<svg xmlns="http://www.w3.org/2000/svg" width="48" height="48" fill="none" viewBox="0 0 48 48">
  <rect width="38" height="38" x="5" y="5" fill="#000" opacity=".2" rx="4"/>
  <path fill="#000" d="M20.276 31.17c0 .76.03 1.37.09 1.83.08.46.22.82.42 1.08.2.26.48.44.84.54.38.1.88.16 1.5.18V36h-10.41v-1.2c.66-.02 1.2-.08 1.62-.18.42-.1.74-.27.96-.51.22-.24.37-.58.45-1.02.08-.44.12-1.01.12-1.71V17.52c0-.68-.04-1.24-.12-1.68-.06-.44-.19-.78-.39-1.02s-.49-.41-.87-.51c-.36-.1-.84-.17-1.44-.21v-1.2h10.35v1.2c-.68.02-1.23.08-1.65.18-.4.1-.71.28-.93.54-.22.26-.37.62-.45 1.08-.06.46-.09 1.07-.09 1.83v6.66l7.77-8.34c.46-.5.69-.92.69-1.26 0-.22-.15-.39-.45-.51-.28-.12-.81-.18-1.59-.18v-1.2h8.19v1.17c-.44.02-.83.06-1.17.12-.32.06-.65.19-.99.39-.32.2-.69.49-1.11.87-.4.36-.9.85-1.5 1.47l-5.34 5.58 8.82 10.74c.42.52.88.9 1.38 1.14.52.24 1.18.38 1.98.42V36h-11.1v-1.2c.82-.02 1.41-.09 1.77-.21.36-.12.54-.32.54-.6 0-.1-.02-.19-.06-.27a.946.946 0 00-.15-.33c-.06-.14-.16-.3-.3-.48-.14-.2-.33-.44-.57-.72l-5.31-6.54-1.5 1.56v3.96z"/>
</svg>
